X:1
T:Title
%%score { ( 1 4 5 ) | ( 2 3 ) }
L:1/8
M:4/4
K:E
V:1 treble nm="Grand Piano"
V:4 treble 
V:5 treble 
V:2 bass 
V:3 bass 
V:1
 z4 z2[Q:1/4=100] E2 | [B,G]3 G B2 [CA]2 | [B,G]3 G E2 E2 | G4[K:bass][K:treble] z4 | %4
[M:3/4] [G,E]6 |[M:1/4] E2 |[M:4/4] z4 B4 | z4 G4 | [^A,G]3 F [A,F]2 G2 |[M:3/4] F6 |[M:1/4] F2 | %11
[M:4/4] A3 G A2 F2 |[M:17/16] B/-B/-B-<BGB3/2B,EA |[M:4/4] G6 z2 |[M:3/4] [G,B,E]6 |[M:1/4] B2 | %16
[M:4/4] B6 z2 | B6 z2 | [Ec]6 [CEF]2 | A6 z2 |[M:3/4] E6 |] %21
V:2
 z4 z2 G,2 | E,,2 z E D2 E,2 | E,,2 z B, G,2 [E,G,]2 | B,3 G, F,2 D,2 |[M:3/4] E,2 B,,2 E,,2 | %5
[M:1/4] G,2 |[M:4/4] E,,2 z E =D3 D | C2 z2 B,3 B, | F,,2 z ^A, z2 A,2 |[M:3/4] A,2 F,2 E,2 | %10
[M:1/4] [B,,D,A,B,]2 |[M:4/4] F,3 ^E, F,2 [B,,A,B,]2 | %12
[M:17/16] [G,B,]/-[G,B,]/-[G,B,]-<[G,B,]E[E,G,E]3/2 z/ z/ z C |[M:4/4] .B,2 B,4 A,2 |[M:3/4] E,,6 | %15
[M:1/4] z2 |[M:4/4] z2 [E,G,]2 [B,,F,]2 z2 | z2 [B,,A,]2 [E,G,]2 [E,G,E]2 | [A,,A,]6 A,,2 | %19
 z2 B,2 A,2 [B,,A,B,]2 |[M:3/4] [E,G,B,]6 |] %21
V:3
 x8 | z2 E,4 z2 | z2 E,4 z2 | B,,8 |[M:3/4] x6 |[M:1/4] x2 |[M:4/4] z2 E,4 z2 | z2 E,4 z2 | %8
 z2 F,2 F,,4 |[M:3/4] x6 |[M:1/4] x2 |[M:4/4] [B,,B,]6 z2 | %12
[M:17/16] E,/-E,/-E,/-E,/-E,-<E, z/ z/ z/ z/ z/ z/ z/ z |[M:4/4] B,,8 |[M:3/4] x6 |[M:1/4] x2 | %16
[M:4/4] x8 | x8 | x8 | B,,6 z2 |[M:3/4] x6 |] %21
V:4
 x8 | x8 | x8 | z2[K:bass] E,E[K:treble] D2 [A,F]2 |[M:3/4] x6 |[M:1/4] x2 | %6
[M:4/4] [B,G]3 G z2 z B | A2 [^B,E]2 z2 z G | x8 |[M:3/4] z2 D2 C2 |[M:1/4] x2 |[M:4/4] x8 | %12
[M:17/16] x17/2 |[M:4/4] z E D4 [DF]2 |[M:3/4] x6 |[M:1/4] x2 |[M:4/4] z2 E2 D2 B2 | z2 F2 E2 B2 | %18
 x8 | [CE]2 D2 C2 D2 |[M:3/4] x6 |] %21
V:5
 x8 | x8 | x8 | x2[K:bass] x2[K:treble] x4 |[M:3/4] x6 |[M:1/4] x2 |[M:4/4] z4 z2 E,2- | %7
 E,2 z2 z2 E,2 | x8 |[M:3/4] x6 |[M:1/4] x2 |[M:4/4] x8 |[M:17/16] x17/2 |[M:4/4] x8 |[M:3/4] x6 | %15
[M:1/4] x2 |[M:4/4] x8 | x8 | x8 | x8 |[M:3/4] x6 |] %21

